X:1
T:Title
%%score ( 1 2 ) { 3 | 4 }
L:1/8
Q:1/4=100
M:4/4
K:G
V:1 treble nm="Grand Piano, Soprano"
V:2 treble 
V:3 treble nm="Choir Pad, Bass"
V:4 bass 
V:1
 D2 [DE][DF] [DG]2 [FA]2 | [GB]2 [Gc]2 [Gd]4 | d2 z2 z4 | [B,G]2 [CA]2 [DF]4 | %4
w: By~James~Baden~Powell,~1893 * * * *||||
 D2 [DE][DF] G3 [FA] | [GB]2 [Gc][=Fd] [Ee]4 | [Ad][Gc][FB][FA] G-[EG]cB | [GA]2 [FA]2 [DG]4- | %8
w: ||||
 [DG]4 z4 |] %9
w: |
V:2
 x8 | x8 | GF[Ec][DB] [CA]2 [B,B]2 | x8 | x8 | x8 | z4 .F2 G2 | x8 | x8 |] %9
V:3
 D2 DD D2 D2 | D2 C2[K:bass] G,4 | G,2 G,G, G,2 F,2 | E,2 A,2 A,4 | DDDD DEDD | D2 CB, C4 | %6
 FEDC B,2 E2 | E[K:bass]A,DC B,4- | B,4 z4 |] %9
V:4
 z2 z C B,2 A,2 | G,2 E,2 B,,4 | B,,2 C,C, D,2 ^D,2 | z2 A,,2 D,4 | .D,2 z C B,CB,A, | %5
 G,=F,E,D, C,4 | D,D,D,D, E,2 A,,B,, | C,2 D,2 [G,,G,]4- | [G,,G,]4 z4 |] %9

